X:6
T:Cratulants
Z:Transcrit et/ou corrig par Michel BELLON - 2005-03-15
Z:Pour toute observation mailto:galouvielle@free.fr
M:2/4
L:1/8
K:D
V:1
D2FE | G2BA | AF GE | ED DF | E/F/E/C/ D2 | A2 (3BAF | (3FEG BA | 
AF GE | ED DF | EFEC | D4 | A2 (3BAF | (3FEG BA | AF GE | ED AB |
D/E/F/G/ FE | D2z2 | D2EF | ECA2 | AF GE | ED EF | EFEC | D4 |
FGA2 | A/B/A/G/ (3GFA | (3FFE D2 || FGA2 | BcD2 | FGA2 | A/B/A/G/ (3GFA | (3FFE D2 |
FGA2 |B3c | D4 || FGA2 | A/B/A/G/ (3GFA | F2ED | D2d2 | ((3Bcd c/B/A/B/) | 
A2z2 | D2EF | ECA2 | AFGE | ED DF | EFEC | D4 |
(3GAB GA |(3FGA FG | (3EFG EF | DAd2 | B2 d2 | A3B | d4 |]
V:2
A2F2 | E2D2 |F2G2 | A2F2 | E2D2 | A2B2 | A2F2 |
